symbols/web/pause_presentation/materialsymbolsrounded/pause_presentation_wght600gradN25fill1_20px.svg

<svg xmlns="http://www.w3.org/2000/svg" height="20" width="20"><path d="M8.271 13.354q.375 0 .656-.281t.281-.635V7.562q0-.354-.281-.635t-.656-.281q-.354 0-.625.281t-.271.635v4.876q0 .354.271.635t.625.281Zm3.479 0q.354 0 .625-.281t.271-.635V7.562q0-.354-.271-.635t-.625-.281q-.375 0-.646.281t-.271.635v4.876q0 .354.271.635t.646.281Zm-8.083 3.521q-.917 0-1.552-.635-.636-.636-.636-1.552V5.312q0-.916.636-1.552.635-.635 1.552-.635h12.666q.917 0 1.552.635.636.636.636 1.552v9.376q0 .916-.636 1.552-.635.635-1.552.635Z"/></svg>

<svg xmlns="http://www.w3.org/2000/svg" height="20" width="20"><path d="M8.271 13.354Q8.646 13.354 8.927 13.073Q9.208 12.792 9.208 12.438V7.562Q9.208 7.208 8.927 6.927Q8.646 6.646 8.271 6.646Q7.917 6.646 7.646 6.927Q7.375 7.208 7.375 7.562V12.438Q7.375 12.792 7.646 13.073Q7.917 13.354 8.271 13.354ZM11.75 13.354Q12.104 13.354 12.375 13.073Q12.646 12.792 12.646 12.438V7.562Q12.646 7.208 12.375 6.927Q12.104 6.646 11.75 6.646Q11.375 6.646 11.104 6.927Q10.833 7.208 10.833 7.562V12.438Q10.833 12.792 11.104 13.073Q11.375 13.354 11.75 13.354ZM3.667 16.875Q2.75 16.875 2.115 16.24Q1.479 15.604 1.479 14.688V5.312Q1.479 4.396 2.115 3.76Q2.75 3.125 3.667 3.125H16.333Q17.25 3.125 17.885 3.76Q18.521 4.396 18.521 5.312V14.688Q18.521 15.604 17.885 16.24Q17.25 16.875 16.333 16.875Z"/></svg>
